cssgg/scroll-h.svg

<svg
  width="24"
  height="24"
  viewBox="0 0 24 24"
  fill="none"
  xmlns="http://www.w3.org/2000/svg"
>
  <path
    d="M7.18188 9.17154L5.76766 7.75732L1.52502 12L5.76766 16.2426L7.18188 14.8284L4.35345 12L7.18188 9.17154Z"
    fill="currentColor"
  />
  <path
    d="M16.8181 14.8284L18.2323 16.2426L22.4749 12L18.2323 7.75733L16.8181 9.17155L19.6465 12L16.8181 14.8284Z"
    fill="currentColor"
  />
  <path
    fill-rule="evenodd"
    clip-rule="evenodd"
    d="M14.9999 12C14.9999 13.6569 13.6567 15 11.9999 15C10.343 15 8.99988 13.6569 8.99988 12C8.99988 10.3431 10.343 9 11.9999 9C13.6567 9 14.9999 10.3431 14.9999 12ZM12.9999 12C12.9999 12.5523 12.5522 13 11.9999 13C11.4476 13 10.9999 12.5523 10.9999 12C10.9999 11.4477 11.4476 11 11.9999 11C12.5522 11 12.9999 11.4477 12.9999 12Z"
    fill="currentColor"
  />
</svg>

<svg viewBox="0 0 24 24" xmlns="http://www.w3.org/2000/svg"><g><path d="M7.18 9.17L5.76 7.75l-4.25 4.24 4.24 4.24 1.41-1.42 -2.83-2.83 2.82-2.83Z"/><path d="M16.81 14.82l1.41 1.41 4.24-4.25 -4.25-4.25 -1.42 1.41 2.82 2.82 -2.83 2.82Z"/><path fill-rule="evenodd" d="M14.99 12c0 1.65-1.35 3-3 3 -1.66 0-3.01-1.35-3.01-3 0-1.66 1.34-3 3-3 1.65 0 3 1.34 3 3Zm-2 0c0 .55-.45 1-1 1 -.56 0-1-.45-1-1 0-.56.44-1 1-1 .55 0 1 .44 1 1Z"/></g></svg>
